dist/img/picture/brands/lokhen.svg

<svg width="123" height="26" viewBox="0 0 123 26" fill="none" xmlns="http://www.w3.org/2000/svg">
<path fill-rule="evenodd" clip-rule="evenodd" d="M10.2483 5.14533L0.195366 11.1912L1.90304 11.9598C1.90304 11.9598 2.54307 11.6592 9.6889 7.47839C9.6889 7.47839 17.5134 2.94642 17.6097 2.94642C17.7056 2.94642 17.7842 6.41898 17.7842 10.6629V18.3731L19.4918 19.4133V9.47519V0C19.4918 0 14.8627 2.44618 10.2483 5.14533ZM20.5164 2.94667C20.5164 2.94667 20.5164 3.05666 20.5164 12.1861V21.4933L13.8368 17.6451L7.02597 13.6933L5.83439 14.653L14.0311 19.6495L22.2241 24.3923V13.3228V2.08L20.5164 2.94667ZM48.9263 5.39701C45.9406 5.99362 43.7705 8.06669 43.0386 11.0217C41.8986 15.6258 44.7019 20.1584 49.1039 20.8285C51.2357 21.153 54.6684 20.824 55.901 20.1771C59.6766 18.1952 61.1363 13.2192 59.1189 9.20549C58.2015 7.38063 56.6059 6.20855 54.1575 5.56098C51.9498 4.97754 51.1513 4.95223 48.9263 5.39701ZM33.153 13.1824V20.9922L38.0198 20.8958L42.8866 20.7998L42.9915 19.3264L43.0967 17.8531H39.8323H36.5683V11.6131V5.37309H34.8607H33.153V13.1824ZM62.5246 13.1731V20.9731H64.2323H65.9399L65.9509 17.7664L65.9614 14.5598L66.7193 15.4531C67.136 15.9447 68.206 17.3875 69.0974 18.6598L70.7176 20.9731H72.4273C73.3675 20.9731 74.1366 20.8892 74.1366 20.7866C74.1366 20.6843 72.984 18.9486 71.5752 16.9299C70.1664 14.9113 69.0137 13.1024 69.0137 12.9107C69.0137 12.7186 70.0895 11.0321 71.4044 9.1625C72.7193 7.29327 73.7951 5.67573 73.7951 5.56826C73.7951 5.46114 72.9881 5.37933 72.0021 5.38695L70.209 5.40082L68.1599 8.42029L66.1107 11.4398L66.012 8.40642L65.9133 5.37309H64.2189H62.5246V13.1731ZM79.2596 13.1731V20.9731H80.9672H82.6749V17.6798V14.3864H86.4317H90.1886V17.6978V21.0095L91.9816 20.9044L93.7746 20.7998V13.1731V5.54642L91.9953 5.44207L90.2155 5.33773L90.1168 8.38874L90.0178 11.4398H86.4317H82.8457L82.747 8.40642L82.6483 5.37309H80.9539H79.2596V13.1731ZM96.3361 13.1821V20.9911L101.544 20.8954L106.753 20.7998V19.4131V18.0264L103.423 17.9273L100.093 17.8281V16.1073V14.3864H102.654H105.216V12.9998V11.6131H102.654H100.093V9.87975V8.14642H103.337H106.582V6.75975V5.37309H101.459H96.3361V13.1821ZM108.973 13.1558V20.9731H110.5H112.028L112.123 15.8733L112.217 10.7735L115.614 15.8733L119.011 20.9731H120.822H122.634V13.1731V5.37309H120.935H119.237L119.142 10.354L119.048 15.3349L115.947 10.4407L112.847 5.54642L110.91 5.44242L108.973 5.33842V13.1558ZM71.6742 12.9162L76.6981 20.6874V5.56479L71.6742 12.9162ZM53.6288 8.6581C54.165 8.93925 54.944 9.72895 55.36 10.4122C55.9768 11.4252 56.0875 12.0135 55.958 13.5964C55.8163 15.3318 55.6503 15.6791 54.3938 16.8689C53.2149 17.9852 52.7521 18.1994 51.5236 18.1973C49.8607 18.1949 48.4273 17.383 47.4625 15.8975C46.6667 14.6721 46.6066 11.9861 47.3433 10.5405C48.4246 8.41821 51.4471 7.51271 53.6288 8.6581Z" fill="#545458"/>
<path fill-rule="evenodd" clip-rule="evenodd" d="M9.03 19.9307L19.2082 25.7568L19.0122 23.8711C19.0122 23.8711 18.4362 23.4581 11.301 19.2586C11.301 19.2586 3.52739 14.6374 3.47934 14.5527C3.43145 14.4683 6.35698 12.6664 9.98025 10.5487L16.563 6.70124L16.5989 4.68006L8.11414 9.6392L0.0245918 14.3673C0.0245918 14.3673 4.42297 17.2186 9.03 19.9307Z" fill="#FFCC00"/>
</svg>

<svg width="123" height="26" viewBox="0 0 123 26" fill="none" xmlns="http://www.w3.org/2000/svg"><path fill-rule="evenodd" clip-rule="evenodd" d="M10.248 5.145L.195 11.191l1.708.769s.64-.3 7.786-4.482c0 0 7.824-4.532 7.92-4.532.097 0 .175 3.473.175 7.717v7.71l1.708 1.04V0s-4.63 2.446-9.244 5.145zm10.268-2.198v18.546l-6.68-3.848-6.81-3.952-1.192.96 8.197 4.996 8.193 4.743V2.08l-1.708.867zm28.41 2.45c-2.985.597-5.156 2.67-5.887 5.625-1.14 4.604 1.663 9.136 6.065 9.806 2.132.325 5.564-.004 6.797-.65 3.776-1.983 5.235-6.959 3.218-10.973-.917-1.824-2.513-2.996-4.962-3.644-2.207-.583-3.006-.609-5.23-.164zm-15.773 7.785v7.81l4.867-.096 4.867-.096.105-1.474.105-1.473h-6.529V5.373h-3.415v7.81zm29.372-.009v7.8h3.415l.01-3.207.011-3.206.758.893c.417.492 1.487 1.934 2.378 3.207l1.62 2.313h1.71c.94 0 1.71-.084 1.71-.186 0-.103-1.153-1.838-2.562-3.857-1.409-2.019-2.561-3.828-2.561-4.02 0-.191 1.076-1.878 2.39-3.748 1.315-1.869 2.391-3.486 2.391-3.594 0-.107-.807-.189-1.793-.181L70.21 5.4l-2.05 3.02-2.048 3.019-.099-3.034-.099-3.033h-3.388v7.8zm16.735 0v7.8h3.415v-6.587h7.514v6.624l1.793-.105 1.793-.104V5.546l-1.78-.104-1.78-.104-.098 3.05-.1 3.052h-7.17l-.099-3.034-.099-3.033H79.26v7.8zm17.076.01v7.808l5.208-.096 5.209-.095v-2.774l-3.33-.099-3.33-.099v-3.442h5.123v-2.773h-5.123V8.146h6.489V5.373H96.336v7.81zm12.637-.027v7.817h3.055l.095-5.1.094-5.1 3.397 5.1 3.397 5.1h3.623v-15.6h-3.397l-.095 4.981-.094 4.98-3.101-4.893-3.1-4.895-1.937-.104-1.937-.104v7.818zm-37.299-.24l5.024 7.771V5.565l-5.024 7.351zM53.63 8.658c.536.281 1.315 1.07 1.731 1.754.617 1.013.727 1.601.598 3.184-.142 1.736-.308 2.083-1.564 3.273-1.18 1.116-1.642 1.33-2.87 1.328-1.663-.002-3.097-.814-4.062-2.3-.795-1.225-.855-3.91-.119-5.357 1.082-2.122 4.104-3.027 6.286-1.882z" fill="#545458"/><path fill-rule="evenodd" clip-rule="evenodd" d="M9.03 19.93l10.178 5.827-.196-1.886s-.576-.413-7.711-4.612c0 0-7.774-4.622-7.822-4.706-.048-.085 2.878-1.887 6.501-4.004L16.563 6.7l.036-2.02-8.485 4.958-8.09 4.728s4.399 2.852 9.006 5.564z" fill="#FC0"/></svg>
